X: 597
T: Acorn, The
R: reel
M: 4/4
K: Dmajor
DB,|:A,DDE FDDE|(3FED FA d3e|fdef dBAF|BFAF EB,DB,|
A,DDE FDDE|(3FED FA d3e|fdef dBAF|1 GECE FDDB,:|2 GECE FDFA||
d2fd Adfd|g2ed cABc|d2fd Adfd|~e3d cABc|
d2fd Adfd|g2ed cABc|d2cA (3Bcd AF|1 EDEF D2FA:|2 EDEF D2||

